assets/images/widget-1.svg

<?xml version="1.0" encoding="UTF-8"?>
<svg width="51px" height="48px" viewBox="0 0 51 48" version="1.1" xmlns="http://www.w3.org/2000/svg" xmlns:xlink="http://www.w3.org/1999/xlink">
    <!-- Generator: Sketch 63.1 (92452) - https://sketch.com -->
    <title>Group</title>
    <desc>Created with Sketch.</desc>
    <defs>
        <linearGradient x1="50%" y1="0%" x2="50%" y2="100%" id="linearGradient-1">
            <stop stop-color="#062FF9" offset="0%"></stop>
            <stop stop-color="#0225D0" offset="100%"></stop>
        </linearGradient>
        <linearGradient x1="50%" y1="0%" x2="50%" y2="100%" id="linearGradient-2">
            <stop stop-color="#062FF9" offset="0%"></stop>
            <stop stop-color="#0225D0" offset="100%"></stop>
        </linearGradient>
        <linearGradient x1="50%" y1="0%" x2="50%" y2="100%" id="linearGradient-3">
            <stop stop-color="#062FF9" offset="0%"></stop>
            <stop stop-color="#0225D0" offset="100%"></stop>
        </linearGradient>
        <linearGradient x1="50%" y1="0%" x2="50%" y2="100%" id="linearGradient-4">
            <stop stop-color="#062FF9" offset="0%"></stop>
            <stop stop-color="#0225D0" offset="100%"></stop>
        </linearGradient>
        <linearGradient x1="50%" y1="0%" x2="50%" y2="100%" id="linearGradient-5">
            <stop stop-color="#062FF9" offset="0%"></stop>
            <stop stop-color="#0225D0" offset="100%"></stop>
        </linearGradient>
        <linearGradient x1="50%" y1="0%" x2="50%" y2="100%" id="linearGradient-6">
            <stop stop-color="#062FF9" offset="0%"></stop>
            <stop stop-color="#0225D0" offset="100%"></stop>
        </linearGradient>
        <linearGradient x1="50%" y1="0%" x2="50%" y2="100%" id="linearGradient-7">
            <stop stop-color="#062FF9" offset="0%"></stop>
            <stop stop-color="#0225D0" offset="100%"></stop>
        </linearGradient>
        <linearGradient x1="50%" y1="0%" x2="50%" y2="100%" id="linearGradient-8">
            <stop stop-color="#062FF9" offset="0%"></stop>
            <stop stop-color="#0225D0" offset="100%"></stop>
        </linearGradient>
        <linearGradient x1="50%" y1="0%" x2="50%" y2="100%" id="linearGradient-9">
            <stop stop-color="#062FF9" offset="0%"></stop>
            <stop stop-color="#0225D0" offset="100%"></stop>
        </linearGradient>
    </defs>
    <g id="Mobile---375px" stroke="none" stroke-width="1" fill="none" fill-rule="evenodd">
        <g id="Mobile-1---375px" transform="translate(-162.000000, -636.000000)" fill-rule="nonzero">
            <g id="Group-9" transform="translate(136.000000, 608.000000)">
                <g id="noun_web-analytics_3060759" transform="translate(26.000000, 28.000000)">
                    <g id="Group">
                        <path d="M3.5859375,44.455856 L47.4140625,44.455856 C47.6342948,44.455856 47.8125,44.276952 47.8125,44.055856 L47.8125,11.472264 C47.8125,11.251168 47.6342948,11.072264 47.4140625,11.072264 L3.5859375,11.072264 C3.36570516,11.072264 3.1875,11.251168 3.1875,11.472264 L3.1875,44.055856 C3.1875,44.276944 3.36570516,44.455856 3.5859375,44.455856 Z M3.984375,11.872264 L47.015625,11.872264 L47.015625,43.655856 L3.984375,43.655856 L3.984375,11.872264 Z" id="Shape" fill="url(#linearGradient-1)"></path>
                        <path d="M2.7890625,47.655856 L48.2109375,47.655856 C49.7486592,47.655856 51,46.399608 51,44.855856 C51,35.207272 51,11.803216 51,3.144136 C51,1.600384 49.7486592,0.344136 48.2109375,0.344136 L2.7890625,0.344136 C1.25134078,0.344136 0,1.600384 0,3.144136 C0,11.886008 0,35.27424 0,44.855856 C0,46.3996 1.25134078,47.655856 2.7890625,47.655856 Z M0.796875,3.144136 C0.796875,2.041008 1.69063406,1.144136 2.7890625,1.144136 L48.2109375,1.144136 C49.3093659,1.144136 50.203125,2.041008 50.203125,3.144136 L50.203125,7.872264 L0.796875,7.872264 L0.796875,3.144136 Z M0.796875,8.672264 L50.203125,8.672264 L50.203125,44.855856 C50.203125,45.958984 49.3093659,46.855856 48.2109375,46.855856 L2.7890625,46.855856 C1.69063406,46.855856 0.796875,45.958984 0.796875,44.855856 L0.796875,8.672264 Z" id="Shape" fill="url(#linearGradient-2)"></path>
                        <path d="M6.37305562,3.005856 C5.54271984,3.005856 4.86724078,3.680072 4.86724078,4.5082 C4.86724078,5.336328 5.54271984,6.010544 6.37305562,6.010544 C7.19366953,6.010544 7.86097266,5.336328 7.86097266,4.5082 C7.86097266,3.680072 7.19366156,3.005856 6.37305562,3.005856 Z M6.37305562,5.210544 C5.98201312,5.210544 5.66411578,4.895704 5.66411578,4.5082 C5.66411578,4.120696 5.98201312,3.805856 6.37305562,3.805856 C6.75398578,3.805856 7.06409766,4.120696 7.06409766,4.5082 C7.06409766,4.895704 6.75398578,5.210544 6.37305562,5.210544 Z" id="Shape" fill="url(#linearGradient-3)"></path>
                        <path d="M10.4916722,3.005856 C9.66172688,3.005856 8.98624781,3.680072 8.98624781,4.5082 C8.98624781,5.336328 9.66172687,6.010544 10.4916722,6.010544 C11.3122861,6.010544 11.9795892,5.336328 11.9795892,4.5082 C11.9795892,3.680072 11.3122781,3.005856 10.4916722,3.005856 Z M10.4916722,5.210544 C10.1010202,5.210544 9.78312281,4.895704 9.78312281,4.5082 C9.78312281,4.120696 10.1010202,3.805856 10.4916722,3.805856 C10.8726023,3.805856 11.1827142,4.120696 11.1827142,4.5082 C11.1827142,4.895704 10.8725944,5.210544 10.4916722,5.210544 Z" id="Shape" fill="url(#linearGradient-4)"></path>
                        <path d="M14.6102808,3.005856 C13.7803355,3.005856 13.1048564,3.680072 13.1048564,4.5082 C13.1048564,5.336328 13.7803355,6.010544 14.6102808,6.010544 C15.4308947,6.010544 16.0985883,5.336328 16.0985883,4.5082 C16.0985883,3.680072 15.4308947,3.005856 14.6102808,3.005856 Z M14.6102808,5.210544 C14.2196288,5.210544 13.9017314,4.895704 13.9017314,4.5082 C13.9017314,4.120696 14.2196288,3.805856 14.6102808,3.805856 C14.9916014,3.805856 15.3017133,4.120696 15.3017133,4.5082 C15.3017133,4.895704 14.9916014,5.210544 14.6102808,5.210544 Z" id="Shape" fill="url(#linearGradient-3)"></path>
                        <path d="M45.3004791,4.1082 L19.7506744,4.1082 C19.530442,4.1082 19.3522369,4.287104 19.3522369,4.5082 C19.3522369,4.729296 19.530442,4.9082 19.7506744,4.9082 L45.3004791,4.9082 C45.5207114,4.9082 45.6989166,4.729296 45.6989166,4.5082 C45.6989166,4.287104 45.5207034,4.1082 45.3004791,4.1082 Z" id="Path" fill="url(#linearGradient-5)"></path>
                        <path d="M13.5188569,14.4582 C10.2274683,14.4582 7.55007984,17.14648 7.55007984,20.450384 C7.55007984,23.754288 10.2274683,26.442568 13.5188569,26.442568 C16.8118791,26.442568 19.4880244,23.773368 19.4880244,20.450384 C19.4880244,17.14648 16.8102455,14.4582 13.5188569,14.4582 Z M8.34695484,20.450384 C8.34695484,17.722256 10.4539242,15.478512 13.1204194,15.273824 L13.1204194,20.450384 L13.1204194,25.626944 C10.4539242,25.422256 8.34695484,23.178512 8.34695484,20.450384 Z M13.9172944,21.416008 C14.0011495,21.500184 17.0808164,24.59152 16.8849525,24.394912 C16.0452773,25.115224 15.0141609,25.544128 13.9172944,25.627728 L13.9172944,21.416008 Z M17.448375,23.829288 C17.343068,23.723576 14.4008222,20.770136 14.4807647,20.850384 L18.6759848,20.850384 C18.5927114,21.951168 18.1662638,22.98632 17.448375,23.829288 Z M13.9172944,20.050384 L13.9172944,15.273824 C16.4522733,15.468352 18.4818183,17.505856 18.6759769,20.050384 L13.9172944,20.050384 Z" id="Shape" fill="url(#linearGradient-6)"></path>
                        <path d="M43.0510922,16.510544 L24.2148,16.510544 C23.9945677,16.510544 23.8163625,16.689448 23.8163625,16.910544 C23.8163625,17.13164 23.9945677,17.310544 24.2148,17.310544 L43.0510922,17.310544 C43.2713245,17.310544 43.4495297,17.13164 43.4495297,16.910544 C43.4495297,16.689448 43.2713245,16.510544 43.0510922,16.510544 Z" id="Path" fill="url(#linearGradient-7)"></path>
                        <path d="M43.0510922,20.050384 L24.2148,20.050384 C23.9945677,20.050384 23.8163625,20.229288 23.8163625,20.450384 C23.8163625,20.67148 23.9945677,20.850384 24.2148,20.850384 L43.0510922,20.850384 C43.2713245,20.850384 43.4495297,20.67148 43.4495297,20.450384 C43.4495297,20.229288 43.2713245,20.050384 43.0510922,20.050384 Z" id="Path" fill="url(#linearGradient-7)"></path>
                        <path d="M24.214808,24.390232 L39.5293589,24.390232 C39.7495913,24.390232 39.9277964,24.211328 39.9277964,23.990232 C39.9277964,23.769136 39.7495913,23.590232 39.5293589,23.590232 L24.214808,23.590232 C23.9945756,23.590232 23.8163705,23.769136 23.8163705,23.990232 C23.8163705,24.211328 23.9945756,24.390232 24.214808,24.390232 Z" id="Path" fill="url(#linearGradient-8)"></path>
                        <path d="M13.5188569,29.085544 C10.2274683,29.085544 7.55007984,31.773824 7.55007984,35.077728 C7.55007984,38.382416 10.2274683,41.070696 13.5188569,41.070696 C16.8137836,41.070696 19.4880244,38.399168 19.4880244,35.077728 C19.4880244,31.773824 16.8102455,29.085544 13.5188569,29.085544 Z M8.34695484,35.077728 C8.34695484,32.3496 10.4539242,30.105856 13.1204194,29.901168 L13.1204194,35.077728 L13.1204194,40.255072 C10.4539242,40.050384 8.34695484,37.806632 8.34695484,35.077728 Z M13.9172944,40.255856 L13.9172944,36.043408 L15.9906117,38.125096 L16.8849525,39.023048 C16.0445044,39.743352 15.013388,40.17148 13.9172944,40.255856 Z M17.448375,38.457416 L16.5540342,37.559464 L14.4807169,35.477728 L18.6759848,35.477728 C18.5927114,36.578512 18.1662637,37.613664 17.448375,38.457416 Z M13.9172944,34.677728 L13.9172944,29.901168 C16.4522733,30.095696 18.4818183,32.1332 18.6759769,34.677728 L13.9172944,34.677728 Z" id="Shape" fill="url(#linearGradient-9)"></path>
                        <path d="M43.0510922,31.137888 L24.2148,31.137888 C23.9945677,31.137888 23.8163625,31.316792 23.8163625,31.537888 C23.8163625,31.758984 23.9945677,31.937888 24.2148,31.937888 L43.0510922,31.937888 C43.2713245,31.937888 43.4495297,31.758984 43.4495297,31.537888 C43.4495297,31.316792 43.2713245,31.137888 43.0510922,31.137888 Z" id="Path" fill="url(#linearGradient-7)"></path>
                        <path d="M43.0510922,34.677728 L24.2148,34.677728 C23.9945677,34.677728 23.8163625,34.856632 23.8163625,35.077728 C23.8163625,35.298824 23.9945677,35.477728 24.2148,35.477728 L43.0510922,35.477728 C43.2713245,35.477728 43.4495297,35.298824 43.4495297,35.077728 C43.4495297,34.856632 43.2713245,34.677728 43.0510922,34.677728 Z" id="Path" fill="url(#linearGradient-7)"></path>
                        <path d="M39.5293589,38.217576 L24.214808,38.217576 C23.9945756,38.217576 23.8163705,38.39648 23.8163705,38.617576 C23.8163705,38.838672 23.9945756,39.017576 24.214808,39.017576 L39.5293589,39.017576 C39.7495913,39.017576 39.9277964,38.838672 39.9277964,38.617576 C39.9277964,38.39648 39.7495912,38.217576 39.5293589,38.217576 Z" id="Path" fill="url(#linearGradient-8)"></path>
                    </g>
                </g>
            </g>
        </g>
    </g>
</svg>

<svg width="51px" height="48px" xmlns="http://www.w3.org/2000/svg" viewBox="0 0 51 48">
  <defs/>
  <defs>
    <linearGradient id="a" x1="50%" x2="50%" y1="0%" y2="100%">
      <stop offset="0%" stop-color="#062FF9"/>
      <stop offset="100%" stop-color="#0225D0"/>
    </linearGradient>
    <linearGradient id="b" x1="50%" x2="50%" y1="0%" y2="100%">
      <stop offset="0%" stop-color="#062FF9"/>
      <stop offset="100%" stop-color="#0225D0"/>
    </linearGradient>
    <linearGradient id="c" x1="50%" x2="50%" y1="0%" y2="100%">
      <stop offset="0%" stop-color="#062FF9"/>
      <stop offset="100%" stop-color="#0225D0"/>
    </linearGradient>
    <linearGradient id="d" x1="50%" x2="50%" y1="0%" y2="100%">
      <stop offset="0%" stop-color="#062FF9"/>
      <stop offset="100%" stop-color="#0225D0"/>
    </linearGradient>
    <linearGradient id="e" x1="50%" x2="50%" y1="0%" y2="100%">
      <stop offset="0%" stop-color="#062FF9"/>
      <stop offset="100%" stop-color="#0225D0"/>
    </linearGradient>
    <linearGradient id="f" x1="50%" x2="50%" y1="0%" y2="100%">
      <stop offset="0%" stop-color="#062FF9"/>
      <stop offset="100%" stop-color="#0225D0"/>
    </linearGradient>
    <linearGradient id="g" x1="50%" x2="50%" y1="0%" y2="100%">
      <stop offset="0%" stop-color="#062FF9"/>
      <stop offset="100%" stop-color="#0225D0"/>
    </linearGradient>
    <linearGradient id="h" x1="50%" x2="50%" y1="0%" y2="100%">
      <stop offset="0%" stop-color="#062FF9"/>
      <stop offset="100%" stop-color="#0225D0"/>
    </linearGradient>
    <linearGradient id="i" x1="50%" x2="50%" y1="0%" y2="100%">
      <stop offset="0%" stop-color="#062FF9"/>
      <stop offset="100%" stop-color="#0225D0"/>
    </linearGradient>
  </defs>
  <g fill="none" fill-rule="nonzero">
    <path fill="url(#a)" d="M3.586 44.456h43.828c.22 0 .398-.179.398-.4V11.472c0-.22-.178-.4-.398-.4H3.586a.399.399 0 00-.398.4v32.584c0 .22.178.4.398.4zm.398-32.584h43.032v31.784H3.984V11.872z"/>
    <path fill="url(#b)" d="M2.79 47.656h45.42a2.798 2.798 0 002.79-2.8V3.144c0-1.544-1.251-2.8-2.79-2.8H2.79A2.798 2.798 0 000 3.144v41.712c0 1.544 1.251 2.8 2.79 2.8zM.796 3.144c0-1.103.894-2 1.992-2h45.422c1.098 0 1.992.897 1.992 2v4.728H.797V3.144zm0 5.528h49.406v36.184c0 1.103-.894 2-1.992 2H2.789a1.998 1.998 0 01-1.992-2V8.672z"/>
    <path fill="url(#c)" d="M6.373 3.006c-.83 0-1.506.674-1.506 1.502s.676 1.503 1.506 1.503c.82 0 1.488-.675 1.488-1.503 0-.828-.667-1.502-1.488-1.502zm0 2.205a.706.706 0 01-.709-.703c0-.387.318-.702.71-.702.38 0 .69.315.69.702 0 .388-.31.703-.69.703z"/>
    <path fill="url(#d)" d="M10.492 3.006c-.83 0-1.506.674-1.506 1.502s.676 1.503 1.506 1.503c.82 0 1.488-.675 1.488-1.503 0-.828-.668-1.502-1.488-1.502zm0 2.205a.706.706 0 01-.709-.703c0-.387.318-.702.709-.702.38 0 .69.315.69.702 0 .388-.31.703-.69.703z"/>
    <path fill="url(#c)" d="M14.61 3.006c-.83 0-1.505.674-1.505 1.502s.675 1.503 1.505 1.503c.82 0 1.489-.675 1.489-1.503 0-.828-.668-1.502-1.489-1.502zm0 2.205a.706.706 0 01-.708-.703c0-.387.318-.702.708-.702.382 0 .692.315.692.702 0 .388-.31.703-.692.703z"/>
    <path fill="url(#e)" d="M45.3 4.108H19.75a.399.399 0 00-.398.4c0 .221.178.4.399.4H45.3c.22 0 .398-.179.398-.4 0-.22-.178-.4-.399-.4z"/>
    <path fill="url(#f)" d="M13.519 14.458c-3.292 0-5.969 2.688-5.969 5.992s2.677 5.993 5.969 5.993c3.293 0 5.969-2.67 5.969-5.993 0-3.304-2.678-5.992-5.97-5.992zM8.347 20.45c0-2.728 2.107-4.971 4.773-5.176v10.353c-2.666-.205-4.773-2.448-4.773-5.177zm5.57.966l2.968 2.979c-.84.72-1.87 1.15-2.968 1.233v-4.212zm3.531 2.413l-2.967-2.979h4.195a5.18 5.18 0 01-1.228 2.98zm-3.53-3.779v-4.776c2.534.194 4.564 2.232 4.758 4.776h-4.759z"/>
    <path fill="url(#g)" d="M43.051 16.51H24.215a.399.399 0 00-.399.4c0 .222.179.4.399.4H43.05c.22 0 .399-.178.399-.4 0-.22-.179-.4-.399-.4zM43.051 20.05H24.215a.399.399 0 00-.399.4c0 .221.179.4.399.4H43.05c.22 0 .399-.179.399-.4 0-.22-.179-.4-.399-.4z"/>
    <path fill="url(#h)" d="M24.215 24.39h15.314c.22 0 .399-.179.399-.4 0-.22-.178-.4-.399-.4H24.215a.399.399 0 00-.399.4c0 .221.179.4.399.4z"/>
    <path fill="url(#i)" d="M13.519 29.086c-3.292 0-5.969 2.688-5.969 5.992s2.677 5.993 5.969 5.993c3.295 0 5.969-2.672 5.969-5.993 0-3.304-2.678-5.992-5.97-5.992zm-5.172 5.992c0-2.728 2.107-4.972 4.773-5.177v10.354c-2.666-.205-4.773-2.448-4.773-5.177zm5.57 5.178v-4.213l2.074 2.082.894.898a5.151 5.151 0 01-2.968 1.233zm3.531-1.799l-.894-.898-2.073-2.081h4.195a5.185 5.185 0 01-1.228 2.98zm-3.53-3.78v-4.776c2.534.195 4.564 2.232 4.758 4.777h-4.759z"/>
    <path fill="url(#g)" d="M43.051 31.138H24.215a.399.399 0 00-.399.4c0 .221.179.4.399.4H43.05c.22 0 .399-.179.399-.4 0-.221-.179-.4-.399-.4zM43.051 34.678H24.215a.399.399 0 00-.399.4c0 .22.179.4.399.4H43.05c.22 0 .399-.18.399-.4 0-.221-.179-.4-.399-.4z"/>
    <path fill="url(#h)" d="M39.53 38.218H24.214a.399.399 0 00-.399.4c0 .22.179.4.399.4h15.314c.22 0 .399-.18.399-.4 0-.222-.178-.4-.399-.4z"/>
  </g>
</svg>
